assets/img/design-token-card.svg

<svg width="285" height="170" viewBox="0 0 285 170" fill="none" xmlns="http://www.w3.org/2000/svg">
<path d="M0 8C0 3.58172 3.58172 0 8 0H277C281.418 0 285 3.58172 285 8V170H0V8Z" fill="#F7FAFD"/>
<path fill-rule="evenodd" clip-rule="evenodd" d="M80 54L105 69.2517V99.7417L80 115L55 99.7417V69.2517L80 54ZM61.3068 73.0962V95.9038L80 107.304L98.6932 95.9038V73.0896L80 61.6958L61.3068 73.0962Z" fill="#0E324F"/>
<path d="M86.3068 84.4967C86.3068 88.1813 83.4813 91.1597 80 91.1597C76.5187 91.1597 73.6932 88.1813 73.6932 84.4967C73.6932 80.8187 76.5187 77.8336 80 77.8336C83.4813 77.8336 86.3068 80.8187 86.3068 84.4967Z" fill="#0E324F"/>
<path fill-rule="evenodd" clip-rule="evenodd" d="M142.5 54L168 69.2517V99.7417L142.5 115L117 99.7417V69.2517L142.5 54ZM123.433 73.0962V95.9038L142.5 107.304L161.567 95.9038V73.0896L142.5 61.6958L123.433 73.0962Z" fill="#154973"/>
<path d="M148.933 84.4967C148.933 88.1813 146.051 91.1597 142.5 91.1597C138.949 91.1597 136.067 88.1813 136.067 84.4967C136.067 80.8187 138.949 77.8336 142.5 77.8336C146.051 77.8336 148.933 80.8187 148.933 84.4967Z" fill="#154973"/>
<path fill-rule="evenodd" clip-rule="evenodd" d="M205 54L230 69.2517V99.7417L205 115L180 99.7417V69.2517L205 54ZM186.307 73.0962V95.9038L205 107.304L223.693 95.9038V73.0896L205 61.6958L186.307 73.0962Z" fill="#457AA5"/>
<path d="M211.307 84.4967C211.307 88.1813 208.481 91.1597 205 91.1597C201.519 91.1597 198.693 88.1813 198.693 84.4967C198.693 80.8187 201.519 77.8336 205 77.8336C208.481 77.8336 211.307 80.8187 211.307 84.4967Z" fill="#457AA5"/>
</svg>

<svg xmlns="http://www.w3.org/2000/svg" width="285" height="170" fill="none" viewBox="0 0 285 170"><path fill="#f7fafd" d="M0 8a8 8 0 0 1 8-8h269a8 8 0 0 1 8 8v162H0z"/><path fill="#0e324f" fill-rule="evenodd" d="m80 54 25 15.252v30.49L80 115 55 99.742v-30.49zM61.307 73.096v22.808L80 107.304l18.693-11.4V73.09L80 61.696z" clip-rule="evenodd"/><path fill="#0e324f" d="M86.307 84.497c0 3.684-2.826 6.663-6.307 6.663s-6.307-2.979-6.307-6.663c0-3.678 2.826-6.663 6.307-6.663s6.307 2.985 6.307 6.663"/><path fill="#154973" fill-rule="evenodd" d="M142.5 54 168 69.252v30.49L142.5 115 117 99.742v-30.49zm-19.067 19.096v22.808l19.067 11.4 19.067-11.4V73.09L142.5 61.696z" clip-rule="evenodd"/><path fill="#154973" d="M148.933 84.497c0 3.684-2.882 6.663-6.433 6.663s-6.433-2.979-6.433-6.663c0-3.678 2.882-6.663 6.433-6.663s6.433 2.985 6.433 6.663"/><path fill="#457aa5" fill-rule="evenodd" d="m205 54 25 15.252v30.49L205 115l-25-15.258v-30.49zm-18.693 19.096v22.808l18.693 11.4 18.693-11.4V73.09L205 61.696z" clip-rule="evenodd"/><path fill="#457aa5" d="M211.307 84.497c0 3.684-2.826 6.663-6.307 6.663s-6.307-2.979-6.307-6.663c0-3.678 2.826-6.663 6.307-6.663s6.307 2.985 6.307 6.663"/></svg>
